symbols/default/41m.svg

<svg width="100" height="100" viewBox="0 0 100 100" fill="none" xmlns="http://www.w3.org/2000/svg">
<g clip-path="url(#clip0_149_1443)">
<path fill-rule="evenodd" clip-rule="evenodd" d="M45.3841 20.79C40.8289 22.9449 36.8442 26.2563 33.9 30.4H32.8C27.9 30.4 23.4 32.7 20.7 36.6C19.3206 36.6828 17.9716 36.9025 16.6678 37.253L17.028 33.693L5.50499 34.935L12.336 25.482L1.70999 20.79H45.3841Z" fill="url(#paint0_radial_149_1443)"/>
<path fill-rule="evenodd" clip-rule="evenodd" d="M45.3841 20.79C40.8289 22.9449 36.8442 26.2563 33.9 30.4H32.8C28.2763 30.4 24.0936 32.3603 21.3533 35.7301C18.8012 34.2682 16.5912 32.1393 15.0158 29.421C13.4662 26.7081 12.7365 23.7317 12.7502 20.79H45.3841Z" fill="#FFD348"/>
<path fill-rule="evenodd" clip-rule="evenodd" d="M44.4814 21.236C40.3026 23.3898 36.6481 26.5323 33.9 30.4H32.8C29.2921 30.4 25.9892 31.5788 23.405 33.6795C20.9931 32.4494 18.8964 30.5366 17.4446 28.0335C16.1228 25.7545 15.5012 23.2571 15.5101 20.79H44.4899C44.4893 20.9388 44.4865 21.0875 44.4814 21.236Z" fill="url(#paint1_linear_149_1443)"/>
<path fill-rule="evenodd" clip-rule="evenodd" d="M1.5 18C0.671573 18 0 18.6716 0 19.5C0 20.3284 0.671573 21 1.5 21H44.9495C48.8623 19.0702 53.2143 18 57.7 18C58.0475 18 58.394 18.0064 58.7392 18.019C58.6613 18.0065 58.5814 18 58.5 18H57.7H1.5Z" fill="#21292B"/>
<path fill-rule="evenodd" clip-rule="evenodd" d="M81.3 42.9C79.4 31.6 69.4 23 57.7 23C48.6 23 40.4 28.1 36.4 36.1C35.2 35.6 34 35.4 32.8 35.4C28.6 35.4 25 37.9 23.6 41.6C23 41.5 22.5 41.5 21.9 41.5C17.8 41.5 14 43.1 11.2 46C8.5 48.8 7 52.4 7 56.2V56.4C7.1 60.5 8.7 64.2 11.6 66.9C14.3 69.6 18 71.1 21.9 71.1H77.6C85.5 71.1 92 64.7 92 56.8C92 50.2 87.5 44.5 81.3 42.9Z" fill="#999999"/>
<g opacity="0.6">
<path fill-rule="evenodd" clip-rule="evenodd" d="M81.3 42.9C79.4 31.6 69.4 23 57.7 23C48.6 23 40.4 28.1 36.4 36.1C35.2 35.6 34 35.4 32.8 35.4C28.6 35.4 25 37.9 23.6 41.6C23 41.5 22.5 41.5 21.9 41.5C17.8 41.5 14 43.1 11.2 46C8.5 48.8 7 52.4 7 56.2V56.4C7.1 60.5 8.7 64.2 11.6 66.9C14.3 69.6 18 71.1 21.9 71.1H77.6C85.5 71.1 92 64.7 92 56.8C92 50.2 87.5 44.5 81.3 42.9Z" fill="url(#paint2_linear_149_1443)" style="mix-blend-mode:multiply"/>
</g>
<path d="M21.5 90C21.2 90 20.8 89.9 20.5 89.8C19.2 89.2 18.7 87.8 19.2 86.5L22.7 78.5C23.3 77.2 24.7 76.7 26 77.2C27.3 77.8 27.8 79.2 27.3 80.5L23.8 88.5C23.4 89.5 22.5 90 21.5 90Z" fill="#006EDB"/>
<path d="M35.5 99C35.2 99 34.8 98.9 34.5 98.8C33.2 98.2 32.7 96.8 33.2 95.5L36.7 87.5C37.3 86.2 38.7 85.7 40 86.2C41.3 86.8 41.8 88.2 41.3 89.5L37.8 97.5C37.4 98.5 36.5 99 35.5 99Z" fill="#006EDB"/>
<path d="M77.5 99C77.2 99 76.8 98.9 76.5 98.8C75.2 98.2 74.7 96.8 75.2 95.5L78.7 87.5C79.3 86.2 80.7 85.7 82 86.2C83.3 86.8 83.8 88.2 83.3 89.5L79.8 97.5C79.4 98.5 78.5 99 77.5 99Z" fill="#006EDB"/>
<path d="M63.5 90C63.2 90 62.8 89.9 62.5 89.8C61.2 89.2 60.7 87.8 61.2 86.5L64.7 78.5C65.3 77.2 66.7 76.7 68 77.2C69.3 77.8 69.8 79.2 69.3 80.5L65.8 88.5C65.4 89.5 64.5 90 63.5 90Z" fill="#006EDB"/>
<path d="M50.5 90C50.2 90 49.8 89.9 49.5 89.8C48.2 89.2 47.7 87.8 48.2 86.5L51.7 78.5C52.3 77.2 53.7 76.7 55 77.2C56.3 77.8 56.8 79.2 56.3 80.5L52.8 88.5C52.4 89.5 51.5 90 50.5 90Z" fill="#006EDB"/>
</g>
<defs>
<radialGradient id="paint0_radial_149_1443" cx="0" cy="0" r="1" gradientUnits="userSpaceOnUse" gradientTransform="translate(30 20.79) scale(28.29)">
<stop offset="0.5143" stop-color="#D6B849"/>
<stop offset="0.6523" stop-color="#FFCE47"/>
<stop offset="1" stop-color="#FFDB73"/>
</radialGradient>
<linearGradient id="paint1_linear_149_1443" x1="20.6851" y1="9.6893" x2="39.3147" y2="31.8912" gradientUnits="userSpaceOnUse">
<stop stop-color="#FFAF22"/>
<stop offset="0.9897" stop-color="#F09900"/>
</linearGradient>
<linearGradient id="paint2_linear_149_1443" x1="47.5" y1="38.5" x2="49.5" y2="71.1" gradientUnits="userSpaceOnUse">
<stop offset="0.484375" stop-color="white" stop-opacity="0"/>
<stop offset="1" stop-color="#B3B2B2"/>
</linearGradient>
<clipPath id="clip0_149_1443">
<rect width="100" height="100" fill="white"/>
</clipPath>
</defs>
</svg>

<svg xmlns="http://www.w3.org/2000/svg" fill="none" viewBox="0 0 100 100">
  <g clip-path="url(#a)">
    <path fill="url(#b)" fill-rule="evenodd" d="M45.384 20.79A29.687 29.687 0 0 0 33.9 30.4h-1.1c-4.9 0-9.4 2.3-12.1 6.2-1.38.083-2.728.303-4.032.653l.36-3.56-11.523 1.242 6.831-9.453L1.71 20.79h43.674Z" clip-rule="evenodd"/>
    <path fill="#FFD348" fill-rule="evenodd" d="M45.384 20.79A29.687 29.687 0 0 0 33.9 30.4h-1.1c-4.524 0-8.706 1.96-11.447 5.33a17.168 17.168 0 0 1-6.337-6.309 17.195 17.195 0 0 1-2.266-8.631h32.634Z" clip-rule="evenodd"/>
    <path fill="url(#c)" fill-rule="evenodd" d="M44.481 21.236A29.679 29.679 0 0 0 33.9 30.4h-1.1c-3.508 0-6.81 1.179-9.395 3.28a14.474 14.474 0 0 1-5.96-5.646 14.29 14.29 0 0 1-1.935-7.244h28.98c0 .149-.004.297-.009.446Z" clip-rule="evenodd"/>
    <path fill="#21292B" fill-rule="evenodd" d="M1.5 18a1.5 1.5 0 0 0 0 3h43.45c3.912-1.93 8.264-3 12.75-3 .347 0 .694.006 1.04.019A1.509 1.509 0 0 0 58.5 18h-57Z" clip-rule="evenodd"/>
    <path fill="#999" fill-rule="evenodd" d="M81.3 42.9C79.4 31.6 69.4 23 57.7 23c-9.1 0-17.3 5.1-21.3 13.1-1.2-.5-2.4-.7-3.6-.7-4.2 0-7.8 2.5-9.2 6.2-.6-.1-1.1-.1-1.7-.1-4.1 0-7.9 1.6-10.7 4.5C8.5 48.8 7 52.4 7 56.2v.2c.1 4.1 1.7 7.8 4.6 10.5 2.7 2.7 6.4 4.2 10.3 4.2h55.7c7.9 0 14.4-6.4 14.4-14.3 0-6.6-4.5-12.3-10.7-13.9Z" clip-rule="evenodd"/>
    <path fill="url(#d)" fill-rule="evenodd" d="M81.3 42.9C79.4 31.6 69.4 23 57.7 23c-9.1 0-17.3 5.1-21.3 13.1-1.2-.5-2.4-.7-3.6-.7-4.2 0-7.8 2.5-9.2 6.2-.6-.1-1.1-.1-1.7-.1-4.1 0-7.9 1.6-10.7 4.5C8.5 48.8 7 52.4 7 56.2v.2c.1 4.1 1.7 7.8 4.6 10.5 2.7 2.7 6.4 4.2 10.3 4.2h55.7c7.9 0 14.4-6.4 14.4-14.3 0-6.6-4.5-12.3-10.7-13.9Z" clip-rule="evenodd" opacity=".6" style="mix-blend-mode:multiply"/>
    <g filter="url(#e)" opacity=".3" style="mix-blend-mode:multiply">
      <path fill="#B6B6B6" d="M29.5 64c1.787 0 24.848-1.272 26.48-2 2.23-.994-2.39-6.972 0-7.47 1.08-.224 2.667-.927 2.667-.927s4.352-1.602 5.103-1.602c.75 0 .374-2.964.14-4.81l-.14-1.32c0-.87-2.592-2.674-3-4.87-.284-1.527.424-3.585.276-3.968 0 0-.05-.029-.036-.032.014-.004.026.007.036.032.112.053.922.327.922.327 1.948.66 5.03 1.74 7.802 3.64 1.658 1.138 3.941 3.314 3.941 3.314s1.645 1.272 2.059 1.687c1 1 4 4 6 4h5L89 51.59l.5 3.21c0 7.9-6.5 14.3-14.4 14.3H18.5S23 64 29.5 64Z"/>
    </g>
    <path fill="#006EDB" d="M21.5 90c-.3 0-.7-.1-1-.2-1.3-.6-1.8-2-1.3-3.3l3.5-8c.6-1.3 2-1.8 3.3-1.3 1.3.6 1.8 2 1.3 3.3l-3.5 8c-.4 1-1.3 1.5-2.3 1.5ZM35.5 99c-.3 0-.7-.1-1-.2-1.3-.6-1.8-2-1.3-3.3l3.5-8c.6-1.3 2-1.8 3.3-1.3 1.3.6 1.8 2 1.3 3.3l-3.5 8c-.4 1-1.3 1.5-2.3 1.5ZM77.5 99c-.3 0-.7-.1-1-.2-1.3-.6-1.8-2-1.3-3.3l3.5-8c.6-1.3 2-1.8 3.3-1.3 1.3.6 1.8 2 1.3 3.3l-3.5 8c-.4 1-1.3 1.5-2.3 1.5ZM63.5 90c-.3 0-.7-.1-1-.2-1.3-.6-1.8-2-1.3-3.3l3.5-8c.6-1.3 2-1.8 3.3-1.3 1.3.6 1.8 2 1.3 3.3l-3.5 8c-.4 1-1.3 1.5-2.3 1.5ZM50.5 90c-.3 0-.7-.1-1-.2-1.3-.6-1.8-2-1.3-3.3l3.5-8c.6-1.3 2-1.8 3.3-1.3 1.3.6 1.8 2 1.3 3.3l-3.5 8c-.4 1-1.3 1.5-2.3 1.5Z"/>
  </g>
  <defs>
    <linearGradient id="c" x1="20.685" x2="39.315" y1="9.689" y2="31.891" gradientUnits="userSpaceOnUse">
      <stop stop-color="#FFAF22"/>
      <stop offset=".99" stop-color="#F09900"/>
    </linearGradient>
    <linearGradient id="d" x1="47.5" x2="49.5" y1="38.5" y2="71.1" gradientUnits="userSpaceOnUse">
      <stop offset=".484" stop-color="#fff" stop-opacity="0"/>
      <stop offset="1" stop-color="#B3B2B2"/>
    </linearGradient>
    <radialGradient id="b" cx="0" cy="0" r="1" gradientTransform="translate(30 20.79) scale(28.29)" gradientUnits="userSpaceOnUse">
      <stop offset=".514" stop-color="#D6B849"/>
      <stop offset=".652" stop-color="#FFCE47"/>
      <stop offset="1" stop-color="#FFDB73"/>
    </radialGradient>
    <clipPath id="a">
      <path fill="#fff" d="M0 0h100v100H0z"/>
    </clipPath>
    <filter id="e" width="85" height="46.101" x="11.5" y="30" color-interpolation-filters="sRGB" filterUnits="userSpaceOnUse">
      <feFlood flood-opacity="0" result="BackgroundImageFix"/>
      <feBlend in="SourceGraphic" in2="BackgroundImageFix" result="shape"/>
      <feGaussianBlur result="effect1_foregroundBlur_149_1443" stdDeviation="3.5"/>
    </filter>
  </defs>
</svg>
